ES1T1/13/aimg/b4.svg

<svg clip-rule="evenodd" fill-rule="evenodd" stroke-linejoin="round" stroke-miterlimit="2" viewBox="0 0 189 180" xmlns="http://www.w3.org/2000/svg" xmlns:xlink="http://www.w3.org/1999/xlink"><linearGradient id="a" gradientTransform="matrix(1 0 0 -1 0 -.000228)" gradientUnits="userSpaceOnUse" x1="0" x2="1" y1="0" y2="0"><stop offset="0" stop-color="#00a550"/><stop offset="1" stop-color="#007338"/></linearGradient><linearGradient id="b" gradientTransform="matrix(1 0 0 -1 0 -.000228)" gradientUnits="userSpaceOnUse" x1="0" x2="1" y1="0" y2="0"><stop offset="0" stop-color="#00af4c"/><stop offset="1" stop-color="#00ad4d"/></linearGradient><linearGradient id="c" gradientTransform="matrix(1 0 0 -1 0 -.000199)" gradientUnits="userSpaceOnUse" x1="0" x2="1" y1="0" y2="0"><stop offset="0" stop-color="#97cf91"/><stop offset="1" stop-color="#00a550"/></linearGradient><linearGradient id="d" gradientTransform="matrix(1 0 0 -1 0 -.005161)" gradientUnits="userSpaceOnUse" x1="0" x2="1" y1="0" y2="0"><stop offset="0" stop-color="#00ac4e"/><stop offset="1" stop-color="#007338"/></linearGradient><linearGradient id="e"><stop offset="0" stop-color="#d6e1e2"/><stop offset="1" stop-color="#a8bfbd"/></linearGradient><linearGradient id="f" gradientTransform="matrix(1 0 0 -1 0 -.005161)" gradientUnits="userSpaceOnUse" x1="0" x2="1" xlink:href="#e" y1="0" y2="0"/><linearGradient id="g" gradientTransform="matrix(1 0 0 -1 0 -.00516)" gradientUnits="userSpaceOnUse" x1="0" x2="1" xlink:href="#e" y1="0" y2="0"/><linearGradient id="h" gradientTransform="matrix(1 0 0 -1 0 -.00132)" gradientUnits="userSpaceOnUse" x1="0" x2="1" y1="0" y2="0"><stop offset="0" stop-color="#fff"/><stop offset="1" stop-color="#dde6e6"/></linearGradient><g fill-rule="nonzero"><path d="m.225-.491.495-.061c.094-.012.156.023.191.054.058.052.089.132.089.233 0 .115-.046.182-.084.218-.024.022-.051.038-.081.049.077.029.164.101.164.281 0 .09-.034.17-.095.219-.055.045-.125.061-.199.046l-.331-.067c-.186-.038-.369-.098-.369-.374 0-.073.024-.137.055-.192-.038-.041-.06-.1-.06-.171 0-.13.084-.218.225-.235z" fill="url(#a)" transform="matrix(0 169.479 169.479 0 94.82 9.628)"/><path d="m.226-.491.494-.061c.094-.012.156.023.191.054.058.052.089.132.089.233 0 .115-.046.182-.084.218-.024.022-.051.038-.081.049.077.029.164.101.164.281 0 .09-.034.17-.095.219-.055.045-.125.061-.199.046l-.331-.067c-.186-.038-.368-.098-.368-.374 0-.073.023-.137.054-.192-.038-.041-.06-.1-.06-.171 0-.13.084-.218.226-.235z" fill="url(#b)" transform="matrix(0 169.486 169.486 0 94.82 .638)"/><path d="m.223-.49.5-.062c.093-.012.154.022.189.053.057.051.088.131.088.231 0 .115-.045.181-.083.216-.027.026-.06.044-.095.054.079.024.177.093.177.284 0 .089-.034.168-.094.217-.054.045-.124.061-.196.046l-.335-.068c-.186-.038-.368-.098-.368-.373 0-.075.024-.139.056-.194-.039-.041-.062-.101-.062-.172 0-.131.082-.215.223-.232z" fill="url(#c)" transform="matrix(0 167.694 167.694 0 94.81 .638)"/><path d="m.161-.494.644-.08c.138-.017.195.088.195.223 0 .144-.075.224-.195.215l-.48-.034c-.043.037-.077.08-.077.125 0 .122.082.158.217.162l.344.009c.137.003.19.092.19.239 0 .131-.082.22-.201.196l-.432-.088c-.256-.052-.359-.115-.359-.338 0-.124.079-.229.165-.315l-.053-.004c-.085-.006-.119-.071-.119-.154 0-.077.033-.14.161-.156z" fill="url(#d)" transform="matrix(0 129.963 129.963 0 95.44 23.995)"/><g fill="url(#f)"><path d="m.161-.494.644-.08c.138-.017.195.088.195.223 0 .144-.075.224-.195.215l-.48-.034c-.043.037-.077.08-.077.125 0 .122.082.158.217.162l.344.009c.137.003.19.092.19.239 0 .131-.083.22-.201.196l-.432-.088c-.256-.052-.359-.115-.359-.338 0-.124.079-.229.165-.315l-.054-.004c-.084-.006-.118-.071-.118-.154 0-.077.033-.14.161-.156z" transform="matrix(0 129.976 129.976 0 95.44 21.295)"/><path d="m.161-.494.644-.08c.138-.017.195.088.195.223 0 .144-.075.224-.195.215l-.48-.034c-.043.037-.077.08-.077.125 0 .122.082.158.217.162l.344.009c.137.003.19.092.19.239 0 .131-.083.22-.201.196l-.432-.088c-.256-.052-.359-.115-.359-.338 0-.124.079-.229.165-.315l-.053-.004c-.085-.006-.119-.071-.119-.154 0-.077.033-.14.161-.156z" transform="matrix(0 129.976 129.976 0 95.44 20.392)"/><path d="m.161-.494.644-.08c.138-.017.195.088.195.223 0 .144-.075.224-.195.215l-.48-.034c-.043.037-.077.08-.077.125 0 .122.082.158.217.162l.344.009c.137.003.19.092.19.239 0 .131-.082.22-.201.196l-.432-.088c-.256-.052-.359-.115-.359-.338 0-.124.079-.229.165-.315l-.054-.004c-.084-.006-.118-.071-.118-.154 0-.077.033-.14.161-.156z" transform="matrix(0 129.97 129.97 0 95.44 19.497)"/><path d="m.161-.494.644-.08c.138-.017.195.088.195.223 0 .144-.075.224-.195.215l-.48-.034c-.043.037-.077.08-.077.125 0 .122.082.158.217.162l.344.009c.137.003.19.092.19.239 0 .131-.083.22-.201.196l-.432-.088c-.256-.052-.359-.115-.359-.338 0-.124.079-.229.165-.315l-.053-.004c-.085-.006-.119-.071-.119-.154 0-.077.033-.14.161-.156z" transform="matrix(0 129.97 129.97 0 95.44 18.6)"/><path d="m.161-.494.644-.08c.138-.017.195.088.195.223 0 .144-.075.224-.195.215l-.48-.034c-.043.037-.077.08-.077.125 0 .122.082.158.217.162l.344.009c.137.003.19.092.19.239 0 .131-.082.22-.201.196l-.432-.088c-.256-.052-.359-.115-.359-.338 0-.124.079-.229.165-.315l-.053-.004c-.085-.006-.119-.071-.119-.154 0-.077.033-.14.161-.156z" transform="matrix(0 129.97 129.97 0 95.44 17.705)"/><path d="m.161-.494.644-.08c.137-.017.195.088.195.223 0 .144-.075.224-.195.215l-.48-.034c-.043.037-.077.08-.077.125 0 .122.082.158.217.162l.344.009c.137.003.19.092.19.239 0 .131-.082.22-.201.196l-.432-.088c-.256-.052-.359-.115-.359-.338 0-.124.079-.229.165-.315l-.053-.004c-.085-.006-.119-.071-.119-.154 0-.077.033-.14.161-.156z" transform="matrix(0 129.976 129.976 0 95.44 16.802)"/></g><path d="m.161-.494.644-.079c.137-.018.195.087.195.222 0 .144-.075.224-.195.215l-.48-.033c-.043.036-.077.079-.077.124 0 .122.082.158.217.162l.344.009c.137.003.19.092.19.239 0 .131-.083.22-.201.196l-.432-.088c-.256-.052-.359-.115-.359-.338 0-.124.079-.229.165-.315l-.054-.004c-.084-.006-.118-.071-.118-.154 0-.077.033-.14.161-.156z" fill="url(#g)" transform="matrix(0 129.982 129.982 0 95.44 15.907)"/><path d="m.161-.494.644-.08c.138-.017.195.088.195.223 0 .144-.075.224-.195.215l-.48-.034c-.043.037-.077.08-.077.125 0 .122.082.158.217.162l.344.009c.137.003.19.092.19.239 0 .131-.083.22-.201.196l-.432-.088c-.256-.052-.359-.115-.359-.338 0-.124.079-.229.165-.315l-.054-.004c-.084-.006-.118-.071-.118-.154 0-.077.033-.14.161-.156z" fill="url(#f)" transform="matrix(0 129.976 129.976 0 95.44 15.01)"/><path d="m.161-.494.644-.079c.138-.018.195.087.195.222 0 .144-.076.224-.195.215l-.48-.033c-.043.036-.077.079-.077.124 0 .122.082.158.217.162l.344.009c.137.003.19.092.19.239 0 .131-.083.22-.201.196l-.432-.088c-.256-.052-.359-.115-.359-.338 0-.124.079-.229.165-.315l-.053-.004c-.085-.006-.119-.071-.119-.154 0-.077.033-.14.161-.156z" fill="url(#g)" transform="matrix(0 129.982 129.982 0 95.44 14.108)"/><path d="m.161-.494.644-.08c.138-.017.195.088.195.223 0 .144-.075.224-.195.215l-.48-.034c-.043.037-.077.08-.077.125 0 .122.082.158.217.162l.344.009c.137.003.19.092.19.239 0 .131-.082.22-.201.196l-.432-.088c-.256-.052-.359-.115-.359-.338 0-.124.079-.229.165-.315l-.054-.004c-.084-.006-.118-.071-.118-.154 0-.077.033-.14.161-.156z" fill="url(#f)" transform="matrix(0 129.964 129.964 0 95.44 13.218)"/><path d="m0 31.136c-4.564 0-7.336-1.651-7.447-5.935l-.281-10.724c-.113-4.201-1.232-6.777-5.04-6.777-1.399 0-2.744 1.065-3.891 2.409l1.061 14.98c.254 3.725-2.238 6.075-6.72 6.075-4.228 0-7.475-1.79-6.943-6.075l2.492-20.105c.477-3.976 2.463-5.012 4.843-5.012 2.604 0 4.62 1.066 4.816 3.694l.112 1.683c2.689-2.689 5.966-5.155 9.829-5.155 6.974 0 8.935 3.22 10.558 11.203l2.741 13.467c.759 3.697-2.043 6.272-6.13 6.272" fill="#fff" transform="matrix(4.16667 0 0 4.16667 142.82 13.333)"/><path d="m.144-.489.683-.085c.048-.006.086.004.114.028.038.034.059.097.059.179 0 .072-.019.128-.055.162-.03.027-.07.04-.12.037l-.508-.037c-.008 0-.015.002-.021.007-.061.052-.092.104-.092.155 0 .171.138.197.258.2l.364.009c.12.004.173.073.173.224 0 .066-.022.123-.061.155-.032.025-.072.034-.117.024l-.457-.093c-.263-.053-.356-.111-.356-.329 0-.1.052-.2.166-.313.005-.006.008-.013.008-.021 0-.003 0-.007-.002-.01-.003-.011-.013-.018-.025-.019l-.057-.004c-.065-.005-.098-.05-.098-.134 0-.058.017-.12.144-.135z" fill="url(#h)" transform="matrix(0 122.777 122.777 0 94.94 18.607)"/></g></svg>

<?xml version="1.0" encoding="UTF-8" standalone="no"?>
<!DOCTYPE svg PUBLIC "-//W3C//DTD SVG 1.1//EN" "http://www.w3.org/Graphics/SVG/1.1/DTD/svg11.dtd">
<svg width="100%" height="100%" viewBox="0 0 189 180" version="1.1" xmlns="http://www.w3.org/2000/svg" xmlns:xlink="http://www.w3.org/1999/xlink" xml:space="preserve" xmlns:serif="http://www.serif.com/" style="fill-rule:evenodd;clip-rule:evenodd;stroke-linejoin:round;stroke-miterlimit:2;">
    <g transform="matrix(1,0,0,1,-1596,-874)">
        <g>
            <g transform="matrix(0,169.479,169.479,0,1690.82,883.628)">
                <path d="M0.225,-0.491L0.72,-0.552C0.814,-0.564 0.876,-0.529 0.911,-0.498C0.969,-0.446 1,-0.366 1,-0.265C1,-0.15 0.954,-0.083 0.916,-0.047C0.892,-0.025 0.865,-0.009 0.835,0.002C0.912,0.031 0.999,0.103 0.999,0.283C0.999,0.373 0.965,0.453 0.904,0.502C0.849,0.547 0.779,0.563 0.705,0.548L0.374,0.481C0.188,0.443 0.005,0.383 0.005,0.107C0.005,0.034 0.029,-0.03 0.06,-0.085C0.022,-0.126 0,-0.185 0,-0.256C0,-0.386 0.084,-0.474 0.225,-0.491Z" style="fill:url(#_Linear1);fill-rule:nonzero;"/>
            </g>
            <g transform="matrix(0,169.486,169.486,0,1690.82,874.638)">
                <path d="M0.226,-0.491L0.72,-0.552C0.814,-0.564 0.876,-0.529 0.911,-0.498C0.969,-0.446 1,-0.366 1,-0.265C1,-0.15 0.954,-0.083 0.916,-0.047C0.892,-0.025 0.865,-0.009 0.835,0.002C0.912,0.031 0.999,0.103 0.999,0.283C0.999,0.373 0.965,0.453 0.904,0.502C0.849,0.547 0.779,0.563 0.705,0.548L0.374,0.481C0.188,0.443 0.006,0.383 0.006,0.107C0.006,0.034 0.029,-0.03 0.06,-0.085C0.022,-0.126 0,-0.185 0,-0.256C0,-0.386 0.084,-0.474 0.226,-0.491Z" style="fill:url(#_Linear2);fill-rule:nonzero;"/>
            </g>
            <g transform="matrix(0,167.694,167.694,0,1690.81,874.638)">
                <path d="M0.223,-0.49L0.723,-0.552C0.816,-0.564 0.877,-0.53 0.912,-0.499C0.969,-0.448 1,-0.368 1,-0.268C1,-0.153 0.955,-0.087 0.917,-0.052C0.89,-0.026 0.857,-0.008 0.822,0.002C0.901,0.026 0.999,0.095 0.999,0.286C0.999,0.375 0.965,0.454 0.905,0.503C0.851,0.548 0.781,0.564 0.709,0.549L0.374,0.481C0.188,0.443 0.006,0.383 0.006,0.108C0.006,0.033 0.03,-0.031 0.062,-0.086C0.023,-0.127 0,-0.187 0,-0.258C0,-0.389 0.082,-0.473 0.223,-0.49Z" style="fill:url(#_Linear3);fill-rule:nonzero;"/>
            </g>
            <g transform="matrix(0,129.963,129.963,0,1691.44,897.995)">
                <path d="M0.161,-0.494L0.805,-0.574C0.943,-0.591 1,-0.486 1,-0.351C1,-0.207 0.925,-0.127 0.805,-0.136L0.325,-0.17C0.282,-0.133 0.248,-0.09 0.248,-0.045C0.248,0.077 0.33,0.113 0.465,0.117L0.809,0.126C0.946,0.129 0.999,0.218 0.999,0.365C0.999,0.496 0.917,0.585 0.798,0.561L0.366,0.473C0.11,0.421 0.007,0.358 0.007,0.135C0.007,0.011 0.086,-0.094 0.172,-0.18L0.119,-0.184C0.034,-0.19 0,-0.255 0,-0.338C0,-0.415 0.033,-0.478 0.161,-0.494Z" style="fill:url(#_Linear4);fill-rule:nonzero;"/>
            </g>
            <g transform="matrix(0,129.976,129.976,0,1691.44,895.295)">
                <path d="M0.161,-0.494L0.805,-0.574C0.943,-0.591 1,-0.486 1,-0.351C1,-0.207 0.925,-0.127 0.805,-0.136L0.325,-0.17C0.282,-0.133 0.248,-0.09 0.248,-0.045C0.248,0.077 0.33,0.113 0.465,0.117L0.809,0.126C0.946,0.129 0.999,0.218 0.999,0.365C0.999,0.496 0.916,0.585 0.798,0.561L0.366,0.473C0.11,0.421 0.007,0.358 0.007,0.135C0.007,0.011 0.086,-0.094 0.172,-0.18L0.118,-0.184C0.034,-0.19 0,-0.255 0,-0.338C0,-0.415 0.033,-0.478 0.161,-0.494Z" style="fill:url(#_Linear5);fill-rule:nonzero;"/>
            </g>
            <g transform="matrix(0,129.976,129.976,0,1691.44,894.392)">
                <path d="M0.161,-0.494L0.805,-0.574C0.943,-0.591 1,-0.486 1,-0.351C1,-0.207 0.925,-0.127 0.805,-0.136L0.325,-0.17C0.282,-0.133 0.248,-0.09 0.248,-0.045C0.248,0.077 0.33,0.113 0.465,0.117L0.809,0.126C0.946,0.129 0.999,0.218 0.999,0.365C0.999,0.496 0.916,0.585 0.798,0.561L0.366,0.473C0.11,0.421 0.007,0.358 0.007,0.135C0.007,0.011 0.086,-0.094 0.172,-0.18L0.119,-0.184C0.034,-0.19 0,-0.255 0,-0.338C0,-0.415 0.033,-0.478 0.161,-0.494Z" style="fill:url(#_Linear6);fill-rule:nonzero;"/>
            </g>
            <g transform="matrix(0,129.97,129.97,0,1691.44,893.497)">
                <path d="M0.161,-0.494L0.805,-0.574C0.943,-0.591 1,-0.486 1,-0.351C1,-0.207 0.925,-0.127 0.805,-0.136L0.325,-0.17C0.282,-0.133 0.248,-0.09 0.248,-0.045C0.248,0.077 0.33,0.113 0.465,0.117L0.809,0.126C0.946,0.129 0.999,0.218 0.999,0.365C0.999,0.496 0.917,0.585 0.798,0.561L0.366,0.473C0.11,0.421 0.007,0.358 0.007,0.135C0.007,0.011 0.086,-0.094 0.172,-0.18L0.118,-0.184C0.034,-0.19 0,-0.255 0,-0.338C0,-0.415 0.033,-0.478 0.161,-0.494Z" style="fill:url(#_Linear7);fill-rule:nonzero;"/>
            </g>
            <g transform="matrix(0,129.97,129.97,0,1691.44,892.6)">
                <path d="M0.161,-0.494L0.805,-0.574C0.943,-0.591 1,-0.486 1,-0.351C1,-0.207 0.925,-0.127 0.805,-0.136L0.325,-0.17C0.282,-0.133 0.248,-0.09 0.248,-0.045C0.248,0.077 0.33,0.113 0.465,0.117L0.809,0.126C0.946,0.129 0.999,0.218 0.999,0.365C0.999,0.496 0.916,0.585 0.798,0.561L0.366,0.473C0.11,0.421 0.007,0.358 0.007,0.135C0.007,0.011 0.086,-0.094 0.172,-0.18L0.119,-0.184C0.034,-0.19 0,-0.255 0,-0.338C0,-0.415 0.033,-0.478 0.161,-0.494Z" style="fill:url(#_Linear8);fill-rule:nonzero;"/>
            </g>
            <g transform="matrix(0,129.97,129.97,0,1691.44,891.705)">
                <path d="M0.161,-0.494L0.805,-0.574C0.943,-0.591 1,-0.486 1,-0.351C1,-0.207 0.925,-0.127 0.805,-0.136L0.325,-0.17C0.282,-0.133 0.248,-0.09 0.248,-0.045C0.248,0.077 0.33,0.113 0.465,0.117L0.809,0.126C0.946,0.129 0.999,0.218 0.999,0.365C0.999,0.496 0.917,0.585 0.798,0.561L0.366,0.473C0.11,0.421 0.007,0.358 0.007,0.135C0.007,0.011 0.086,-0.094 0.172,-0.18L0.119,-0.184C0.034,-0.19 0,-0.255 0,-0.338C0,-0.415 0.033,-0.478 0.161,-0.494Z" style="fill:url(#_Linear9);fill-rule:nonzero;"/>
            </g>
            <g transform="matrix(0,129.976,129.976,0,1691.44,890.802)">
                <path d="M0.161,-0.494L0.805,-0.574C0.942,-0.591 1,-0.486 1,-0.351C1,-0.207 0.925,-0.127 0.805,-0.136L0.325,-0.17C0.282,-0.133 0.248,-0.09 0.248,-0.045C0.248,0.077 0.33,0.113 0.465,0.117L0.809,0.126C0.946,0.129 0.999,0.218 0.999,0.365C0.999,0.496 0.917,0.585 0.798,0.561L0.366,0.473C0.11,0.421 0.007,0.358 0.007,0.135C0.007,0.011 0.086,-0.094 0.172,-0.18L0.119,-0.184C0.034,-0.19 0,-0.255 0,-0.338C0,-0.415 0.033,-0.478 0.161,-0.494Z" style="fill:url(#_Linear10);fill-rule:nonzero;"/>
            </g>
            <g transform="matrix(0,129.982,129.982,0,1691.44,889.907)">
                <path d="M0.161,-0.494L0.805,-0.573C0.942,-0.591 1,-0.486 1,-0.351C1,-0.207 0.925,-0.127 0.805,-0.136L0.325,-0.169C0.282,-0.133 0.248,-0.09 0.248,-0.045C0.248,0.077 0.33,0.113 0.465,0.117L0.809,0.126C0.946,0.129 0.999,0.218 0.999,0.365C0.999,0.496 0.916,0.585 0.798,0.561L0.366,0.473C0.11,0.421 0.007,0.358 0.007,0.135C0.007,0.011 0.086,-0.094 0.172,-0.18L0.118,-0.184C0.034,-0.19 0,-0.255 0,-0.338C0,-0.415 0.033,-0.478 0.161,-0.494Z" style="fill:url(#_Linear11);fill-rule:nonzero;"/>
            </g>
            <g transform="matrix(0,129.976,129.976,0,1691.44,889.01)">
                <path d="M0.161,-0.494L0.805,-0.574C0.943,-0.591 1,-0.486 1,-0.351C1,-0.207 0.925,-0.127 0.805,-0.136L0.325,-0.17C0.282,-0.133 0.248,-0.09 0.248,-0.045C0.248,0.077 0.33,0.113 0.465,0.117L0.809,0.126C0.946,0.129 0.999,0.218 0.999,0.365C0.999,0.496 0.916,0.585 0.798,0.561L0.366,0.473C0.11,0.421 0.007,0.358 0.007,0.135C0.007,0.011 0.086,-0.094 0.172,-0.18L0.118,-0.184C0.034,-0.19 0,-0.255 0,-0.338C0,-0.415 0.033,-0.478 0.161,-0.494Z" style="fill:url(#_Linear12);fill-rule:nonzero;"/>
            </g>
            <g transform="matrix(0,129.982,129.982,0,1691.44,888.108)">
                <path d="M0.161,-0.494L0.805,-0.573C0.943,-0.591 1,-0.486 1,-0.351C1,-0.207 0.924,-0.127 0.805,-0.136L0.325,-0.169C0.282,-0.133 0.248,-0.09 0.248,-0.045C0.248,0.077 0.33,0.113 0.465,0.117L0.809,0.126C0.946,0.129 0.999,0.218 0.999,0.365C0.999,0.496 0.916,0.585 0.798,0.561L0.366,0.473C0.11,0.421 0.007,0.358 0.007,0.135C0.007,0.011 0.086,-0.094 0.172,-0.18L0.119,-0.184C0.034,-0.19 0,-0.255 0,-0.338C0,-0.415 0.033,-0.478 0.161,-0.494Z" style="fill:url(#_Linear13);fill-rule:nonzero;"/>
            </g>
            <g transform="matrix(0,129.964,129.964,0,1691.44,887.218)">
                <path d="M0.161,-0.494L0.805,-0.574C0.943,-0.591 1,-0.486 1,-0.351C1,-0.207 0.925,-0.127 0.805,-0.136L0.325,-0.17C0.282,-0.133 0.248,-0.09 0.248,-0.045C0.248,0.077 0.33,0.113 0.465,0.117L0.809,0.126C0.946,0.129 0.999,0.218 0.999,0.365C0.999,0.496 0.917,0.585 0.798,0.561L0.366,0.473C0.11,0.421 0.007,0.358 0.007,0.135C0.007,0.011 0.086,-0.094 0.172,-0.18L0.118,-0.184C0.034,-0.19 0,-0.255 0,-0.338C0,-0.415 0.033,-0.478 0.161,-0.494Z" style="fill:url(#_Linear14);fill-rule:nonzero;"/>
            </g>
            <g transform="matrix(4.16667,0,0,4.16667,1738.82,887.333)">
                <path d="M0,31.136C-4.564,31.136 -7.336,29.485 -7.447,25.201L-7.728,14.477C-7.841,10.276 -8.96,7.7 -12.768,7.7C-14.167,7.7 -15.512,8.765 -16.659,10.109L-15.598,25.089C-15.344,28.814 -17.836,31.164 -22.318,31.164C-26.546,31.164 -29.793,29.374 -29.261,25.089L-26.769,4.984C-26.292,1.008 -24.306,-0.028 -21.926,-0.028C-19.322,-0.028 -17.306,1.038 -17.11,3.666L-16.998,5.349C-14.309,2.66 -11.032,0.194 -7.169,0.194C-0.195,0.194 1.766,3.414 3.389,11.397L6.13,24.864C6.889,28.561 4.087,31.136 0,31.136" style="fill:white;fill-rule:nonzero;"/>
            </g>
            <g transform="matrix(0,122.777,122.777,0,1690.94,892.607)">
                <path d="M0.144,-0.489L0.827,-0.574C0.875,-0.58 0.913,-0.57 0.941,-0.546C0.979,-0.512 1,-0.449 1,-0.367C1,-0.295 0.981,-0.239 0.945,-0.205C0.915,-0.178 0.875,-0.165 0.825,-0.168L0.317,-0.205C0.309,-0.205 0.302,-0.203 0.296,-0.198C0.235,-0.146 0.204,-0.094 0.204,-0.043C0.204,0.128 0.342,0.154 0.462,0.157L0.826,0.166C0.946,0.17 0.999,0.239 0.999,0.39C0.999,0.456 0.977,0.513 0.938,0.545C0.906,0.57 0.866,0.579 0.821,0.569L0.364,0.476C0.101,0.423 0.008,0.365 0.008,0.147C0.008,0.047 0.06,-0.053 0.174,-0.166C0.179,-0.172 0.182,-0.179 0.182,-0.187C0.182,-0.19 0.182,-0.194 0.18,-0.197C0.177,-0.208 0.167,-0.215 0.155,-0.216L0.098,-0.22C0.033,-0.225 0,-0.27 0,-0.354C0,-0.412 0.017,-0.474 0.144,-0.489Z" style="fill:url(#_Linear15);fill-rule:nonzero;"/>
            </g>
        </g>
    </g>
    <defs>
        <linearGradient id="_Linear1" x1="0" y1="0" x2="1" y2="0" gradientUnits="userSpaceOnUse" gradientTransform="matrix(1,0,0,-1,0,-0.000227722)"><stop offset="0" style="stop-color:rgb(0,165,80);stop-opacity:1"/><stop offset="1" style="stop-color:rgb(0,115,56);stop-opacity:1"/></linearGradient>
        <linearGradient id="_Linear2" x1="0" y1="0" x2="1" y2="0" gradientUnits="userSpaceOnUse" gradientTransform="matrix(1,0,0,-1,0,-0.000227714)"><stop offset="0" style="stop-color:rgb(0,175,76);stop-opacity:1"/><stop offset="1" style="stop-color:rgb(0,173,77);stop-opacity:1"/></linearGradient>
        <linearGradient id="_Linear3" x1="0" y1="0" x2="1" y2="0" gradientUnits="userSpaceOnUse" gradientTransform="matrix(1,0,0,-1,0,-0.000199401)"><stop offset="0" style="stop-color:rgb(151,207,145);stop-opacity:1"/><stop offset="1" style="stop-color:rgb(0,165,80);stop-opacity:1"/></linearGradient>
        <linearGradient id="_Linear4" x1="0" y1="0" x2="1" y2="0" gradientUnits="userSpaceOnUse" gradientTransform="matrix(1,0,0,-1,0,-0.00516102)"><stop offset="0" style="stop-color:rgb(0,172,78);stop-opacity:1"/><stop offset="1" style="stop-color:rgb(0,115,56);stop-opacity:1"/></linearGradient>
        <linearGradient id="_Linear5" x1="0" y1="0" x2="1" y2="0" gradientUnits="userSpaceOnUse" gradientTransform="matrix(1,0,0,-1,0,-0.00516053)"><stop offset="0" style="stop-color:rgb(214,225,226);stop-opacity:1"/><stop offset="0" style="stop-color:rgb(214,225,226);stop-opacity:1"/><stop offset="1" style="stop-color:rgb(168,191,189);stop-opacity:1"/></linearGradient>
        <linearGradient id="_Linear6" x1="0" y1="0" x2="1" y2="0" gradientUnits="userSpaceOnUse" gradientTransform="matrix(1,0,0,-1,0,-0.00516053)"><stop offset="0" style="stop-color:rgb(214,225,226);stop-opacity:1"/><stop offset="0" style="stop-color:rgb(214,225,226);stop-opacity:1"/><stop offset="1" style="stop-color:rgb(168,191,189);stop-opacity:1"/></linearGradient>
        <linearGradient id="_Linear7" x1="0" y1="0" x2="1" y2="0" gradientUnits="userSpaceOnUse" gradientTransform="matrix(1,0,0,-1,0,-0.00516077)"><stop offset="0" style="stop-color:rgb(214,225,226);stop-opacity:1"/><stop offset="0" style="stop-color:rgb(214,225,226);stop-opacity:1"/><stop offset="1" style="stop-color:rgb(168,191,189);stop-opacity:1"/></linearGradient>
        <linearGradient id="_Linear8" x1="0" y1="0" x2="1" y2="0" gradientUnits="userSpaceOnUse" gradientTransform="matrix(1,0,0,-1,0,-0.00516075)"><stop offset="0" style="stop-color:rgb(214,225,226);stop-opacity:1"/><stop offset="0" style="stop-color:rgb(214,225,226);stop-opacity:1"/><stop offset="1" style="stop-color:rgb(168,191,189);stop-opacity:1"/></linearGradient>
        <linearGradient id="_Linear9" x1="0" y1="0" x2="1" y2="0" gradientUnits="userSpaceOnUse" gradientTransform="matrix(1,0,0,-1,0,-0.00516077)"><stop offset="0" style="stop-color:rgb(214,225,226);stop-opacity:1"/><stop offset="0" style="stop-color:rgb(214,225,226);stop-opacity:1"/><stop offset="1" style="stop-color:rgb(168,191,189);stop-opacity:1"/></linearGradient>
        <linearGradient id="_Linear10" x1="0" y1="0" x2="1" y2="0" gradientUnits="userSpaceOnUse" gradientTransform="matrix(1,0,0,-1,0,-0.00516053)"><stop offset="0" style="stop-color:rgb(214,225,226);stop-opacity:1"/><stop offset="0" style="stop-color:rgb(214,225,226);stop-opacity:1"/><stop offset="1" style="stop-color:rgb(168,191,189);stop-opacity:1"/></linearGradient>
        <linearGradient id="_Linear11" x1="0" y1="0" x2="1" y2="0" gradientUnits="userSpaceOnUse" gradientTransform="matrix(1,0,0,-1,0,-0.00516028)"><stop offset="0" style="stop-color:rgb(214,225,226);stop-opacity:1"/><stop offset="0" style="stop-color:rgb(214,225,226);stop-opacity:1"/><stop offset="1" style="stop-color:rgb(168,191,189);stop-opacity:1"/></linearGradient>
        <linearGradient id="_Linear12" x1="0" y1="0" x2="1" y2="0" gradientUnits="userSpaceOnUse" gradientTransform="matrix(1,0,0,-1,0,-0.00516053)"><stop offset="0" style="stop-color:rgb(214,225,226);stop-opacity:1"/><stop offset="0" style="stop-color:rgb(214,225,226);stop-opacity:1"/><stop offset="1" style="stop-color:rgb(168,191,189);stop-opacity:1"/></linearGradient>
        <linearGradient id="_Linear13" x1="0" y1="0" x2="1" y2="0" gradientUnits="userSpaceOnUse" gradientTransform="matrix(1,0,0,-1,0,-0.00516028)"><stop offset="0" style="stop-color:rgb(214,225,226);stop-opacity:1"/><stop offset="0" style="stop-color:rgb(214,225,226);stop-opacity:1"/><stop offset="1" style="stop-color:rgb(168,191,189);stop-opacity:1"/></linearGradient>
        <linearGradient id="_Linear14" x1="0" y1="0" x2="1" y2="0" gradientUnits="userSpaceOnUse" gradientTransform="matrix(1,0,0,-1,0,-0.005161)"><stop offset="0" style="stop-color:rgb(214,225,226);stop-opacity:1"/><stop offset="0" style="stop-color:rgb(214,225,226);stop-opacity:1"/><stop offset="1" style="stop-color:rgb(168,191,189);stop-opacity:1"/></linearGradient>
        <linearGradient id="_Linear15" x1="0" y1="0" x2="1" y2="0" gradientUnits="userSpaceOnUse" gradientTransform="matrix(1,0,0,-1,0,-0.00131951)"><stop offset="0" style="stop-color:white;stop-opacity:1"/><stop offset="0" style="stop-color:white;stop-opacity:1"/><stop offset="1" style="stop-color:rgb(221,230,230);stop-opacity:1"/><stop offset="1" style="stop-color:rgb(221,230,230);stop-opacity:1"/></linearGradient>
    </defs>
</svg>
